assets/img/space__heroExtras4.svg

<svg xmlns="http://www.w3.org/2000/svg" viewBox="0 0 102 102" enable-background="new 0 0 102 102"><style type="text/css">.st0{fill:#BABABA;}</style><path class="st0" d="M80.3 51h-7.7v-14.2c2.7-.7 4.6-3.2 4.6-6.1v-19.7c0-3.5-2.8-6.3-6.3-6.3h-39.8c-3.5 0-6.3 2.8-6.3 6.3v19.8c0 2.9 2 5.3 4.6 6.1v14.1h-7.7v9.3h4.6v35.5c0 .9.7 1.5 1.5 1.5.9 0 1.5-.7 1.5-1.5v-26.3h3.1v23.2c0 .9.7 1.5 1.5 1.5.9 0 1.5-.7 1.5-1.5v-23.2h30.9v23.2c0 .9.7 1.5 1.5 1.5.9 0 1.5-.7 1.5-1.5v-23.2h3.1v26.2c0 .9.7 1.5 1.5 1.5.9 0 1.5-.7 1.5-1.5v-35.4h4.6v-9.3zm-52.5-20.2v-19.8c0-1.8 1.5-3.2 3.3-3.2h39.8c1.8 0 3.2 1.5 3.2 3.2v19.8c0 1.8-1.5 3.2-3.2 3.2h-39.8c-1.8 0-3.3-1.4-3.3-3.2zm4.7 6.3h37.1v13.9h-37.1v-13.9zm-3.1 29.3v-6.2h3.1v6.2h-3.1zm6.2 0v-6.2h30.9v6.2h-30.9zm37 0h-3.1v-6.2h3.1v6.2zm4.7-9.2h-52.5v-3.1h52.5v3.1zm0 0M43.3 21.7h15.4c2.6 0 4.6-2.1 4.6-4.6 0-2.5-2.1-4.6-4.6-4.6h-15.4c-2.6 0-4.6 2.1-4.6 4.6 0 2.5 2 4.6 4.6 4.6zm0-6.2h15.4c.9 0 1.5.7 1.5 1.5 0 .9-.7 1.5-1.5 1.5h-15.4c-.9 0-1.5-.7-1.5-1.5-.1-.8.6-1.5 1.5-1.5zm0 0"/></svg>

<?xml version="1.0" encoding="utf-8"?>
<!-- Generator: Adobe Illustrator 19.2.0, SVG Export Plug-In . SVG Version: 6.00 Build 0)  -->
<svg version="1.1" id="Layer_1" xmlns="http://www.w3.org/2000/svg" xmlns:xlink="http://www.w3.org/1999/xlink" x="0px" y="0px"
	 viewBox="0 0 102 102" style="enable-background:new 0 0 102 102;" xml:space="preserve">
<style type="text/css">
	.st0{fill:#BABABA;}
</style>
<g>
	<path class="st0" d="M80.3,51h-7.7V36.8c2.7-0.7,4.6-3.2,4.6-6.1V11c0-3.5-2.8-6.3-6.3-6.3H31.1c-3.5,0-6.3,2.8-6.3,6.3v19.8
		c0,2.9,2,5.3,4.6,6.1V51h-7.7v9.3h4.6v35.5c0,0.9,0.7,1.5,1.5,1.5c0.9,0,1.5-0.7,1.5-1.5V69.5h3.1v23.2c0,0.9,0.7,1.5,1.5,1.5
		c0.9,0,1.5-0.7,1.5-1.5V69.5h30.9v23.2c0,0.9,0.7,1.5,1.5,1.5c0.9,0,1.5-0.7,1.5-1.5V69.5h3.1v26.2c0,0.9,0.7,1.5,1.5,1.5
		c0.9,0,1.5-0.7,1.5-1.5V60.3h4.6V51z M27.8,30.8V11c0-1.8,1.5-3.2,3.3-3.2h39.8c1.8,0,3.2,1.5,3.2,3.2v19.8c0,1.8-1.5,3.2-3.2,3.2
		H31.1C29.3,34,27.8,32.6,27.8,30.8L27.8,30.8z M32.5,37.1h37.1V51H32.5V37.1z M29.4,66.4v-6.2h3.1v6.2H29.4z M35.6,66.4v-6.2h30.9
		v6.2H35.6z M72.6,66.4h-3.1v-6.2h3.1V66.4z M77.3,57.2H24.8v-3.1h52.5V57.2z M77.3,57.2"/>
	<path class="st0" d="M43.3,21.7h15.4c2.6,0,4.6-2.1,4.6-4.6c0-2.5-2.1-4.6-4.6-4.6H43.3c-2.6,0-4.6,2.1-4.6,4.6
		C38.7,19.6,40.7,21.7,43.3,21.7L43.3,21.7z M43.3,15.5h15.4c0.9,0,1.5,0.7,1.5,1.5c0,0.9-0.7,1.5-1.5,1.5H43.3
		c-0.9,0-1.5-0.7-1.5-1.5C41.7,16.2,42.4,15.5,43.3,15.5L43.3,15.5z M43.3,15.5"/>
</g>
</svg>
